X: 18124
T: Humours Of Carrigaholt, The
R: reel
M: 4/4
K: Dmajor
|dcAF G2 AG|FDDE FGAB|=cAAF G2 FG|Addc dfed|
dcAF G2 AG|FDDE FGAB|=cAAF G2 FG|Addc d4||
fdde fdgf|edcd efge|fd d2 fdgf|edcd e3 g|
fdde fdgf|edcd efge|agfa gfec|dfec d4|

